img/ntek-color.svg

<svg width="203" height="66" viewBox="0 0 203 66" fill="none" xmlns="http://www.w3.org/2000/svg">
<path d="M203 0.444336C200.002 17.2865 197.216 33.8637 194.036 50.3577C192.498 58.3449 187.259 63.2349 179.231 64.8198C176.222 65.4122 173.125 65.8332 170.064 65.8383C131.38 65.9059 92.6969 65.8955 54.0186 65.8643C51.9296 65.8643 49.8458 65.5577 46.6343 65.3083C47.393 61.177 48.0166 57.5654 48.7233 53.9693C51.3216 40.7128 53.9095 27.4563 56.5754 14.2153C58.7579 3.38041 60.2442 2.13843 71.2194 2.13323C106.577 2.10205 141.94 2.21638 177.298 2.04489C185.498 2.00332 193.693 1.05234 203 0.444336ZM183.107 56.4221C178.264 48.7987 173.525 41.3312 168.749 33.8169C177.09 26.0064 184.874 18.7156 192.95 11.1493C176.102 5.24599 170.282 20.2694 159.717 26.7235C160.72 20.9085 161.588 15.8834 162.861 8.51985C157.223 10.2763 150.213 10.6972 149.569 12.9422C145.437 27.3783 142.699 42.2146 139.498 56.9626C148.016 58.2375 153.111 55.3412 154.781 48.2738C155.29 46.1225 155.919 44.0022 156.859 40.4945C162.809 51.4022 167.372 62.8191 183.107 56.4221ZM143.681 9.9749C133.163 9.9749 123.232 9.87097 113.312 10.0892C111.826 10.1204 109.342 11.4351 109.066 12.5784C105.522 27.3575 102.29 42.2146 98.8289 57.7317C108.64 57.7317 117.147 57.7317 125.649 57.7317C136.011 57.7317 136.946 56.6767 136.078 45.1247H115.437C115.099 38.4107 119.226 39.0603 123.05 39.0551C133.163 39.0395 133.163 39.0031 134.524 28.1838C129.499 27.8668 124.511 27.5446 119.522 27.2276C119.22 26.5624 118.914 25.8921 118.612 25.2269C120.327 24.0889 121.917 22.3116 123.778 21.9635C126.761 21.4074 129.915 21.8024 133.002 21.7972C139.768 21.7868 143.326 17.846 143.676 9.9749H143.681ZM67.8416 56.9262C80.3966 59.0828 80.6252 58.9581 83.156 47.7958C84.7202 40.8895 86.5598 34.0144 87.5887 27.0249C88.2175 22.7481 90.0051 21.7244 94.0325 21.7036C104.649 21.6465 104.649 21.4646 105.517 9.95411C94.178 9.95411 82.8858 9.94372 71.5935 9.95411C62.1461 9.96451 61.1328 11.1182 61.7668 21.475C65.9968 21.7452 70.2892 22.0206 75.1428 22.3324C72.5809 34.4925 70.2164 45.7015 67.8468 56.9262H67.8416Z" fill="black"/>
<path d="M50.1784 11.7157C46.9461 26.2142 43.9477 40.2762 40.4815 54.2187C40.1385 55.601 36.74 57.2898 35.0407 57.0248C32.1877 56.5779 28.2227 55.3827 27.0847 53.2469C23.6913 46.8915 21.4464 39.9176 17.0448 33.1516C15.8133 38.5041 14.6024 43.867 13.3501 49.2143C11.3234 57.8615 10.4763 58.3396 0 56.079C3.17512 41.8871 6.22553 27.6484 9.74882 13.5293C10.0814 12.1938 13.6567 10.5308 15.278 10.9154C17.6061 11.461 20.459 13.3006 21.4516 15.3741C24.8813 22.5298 27.5991 30.0233 32.3281 37.2154C33.7571 31.0886 35.2433 24.9774 36.5945 18.835C38.5068 10.1567 39.2551 9.66821 50.1732 11.7105L50.1784 11.7157Z" fill="black"/>
</svg>

<svg width="203" height="66" fill="none" xmlns="http://www.w3.org/2000/svg"><path d="M203 .444c-2.998 16.843-5.784 33.42-8.964 49.914-1.538 7.987-6.777 12.877-14.805 14.462-3.009.592-6.106 1.013-9.167 1.018-38.684.068-77.367.058-116.045.026-2.09 0-4.173-.306-7.385-.556.759-4.131 1.383-7.743 2.09-11.339 2.598-13.256 5.186-26.513 7.851-39.754C58.758 3.38 60.245 2.138 71.22 2.133c35.358-.03 70.721.083 106.079-.088 8.2-.042 16.395-.993 25.702-1.6zm-19.893 55.978c-4.843-7.623-9.582-15.09-14.358-22.605 8.341-7.81 16.125-15.101 24.201-22.668-16.848-5.903-22.668 9.12-33.233 15.575 1.003-5.816 1.871-10.84 3.144-18.204-5.638 1.756-12.648 2.177-13.292 4.422-4.132 14.436-6.87 29.273-10.071 44.02 8.518 1.275 13.613-1.62 15.283-8.688.509-2.151 1.138-4.272 2.078-7.78 5.95 10.908 10.513 22.325 26.248 15.928zM143.681 9.975c-10.518 0-20.449-.104-30.369.114-1.486.031-3.97 1.346-4.246 2.49-3.544 14.779-6.776 29.636-10.237 45.153h26.82c10.362 0 11.297-1.055 10.429-12.607h-20.641c-.338-6.714 3.789-6.065 7.613-6.07 10.113-.016 10.113-.052 11.474-10.871-5.025-.317-10.013-.64-15.002-.956l-.91-2.001c1.715-1.138 3.305-2.915 5.166-3.264 2.983-.556 6.137-.16 9.224-.166 6.766-.01 10.324-3.951 10.674-11.822h.005zm-75.84 46.951c12.556 2.157 12.784 2.032 15.315-9.13 1.564-6.907 3.404-13.782 4.433-20.771.629-4.277 2.416-5.3 6.444-5.321 10.616-.058 10.616-.24 11.484-11.75-11.339 0-22.631-.01-33.923 0-9.448.01-10.461 1.164-9.827 11.521 4.23.27 8.522.546 13.376.857-2.562 12.16-4.927 23.37-7.296 34.594h-.005zm-17.663-45.21c-3.232 14.498-6.23 28.56-9.697 42.503-.343 1.382-3.741 3.07-5.44 2.806-2.853-.447-6.818-1.642-7.956-3.778-3.394-6.355-5.639-13.33-10.04-20.095-1.232 5.352-2.443 10.715-3.695 16.062C11.323 57.862 10.476 58.34 0 56.08c3.175-14.192 6.226-28.43 9.749-42.55.332-1.335 3.908-2.998 5.529-2.614 2.328.546 5.181 2.386 6.174 4.46 3.43 7.155 6.147 14.648 10.876 21.84 1.43-6.126 2.915-12.238 4.266-18.38 1.913-8.678 2.661-9.167 13.58-7.125l.004.006z" fill="#000"/></svg>
